Adwaita++/apps/16/crittografia.svg

<svg fill="none" height="16" viewBox="0 0 16 16" width="16" xmlns="http://www.w3.org/2000/svg">
  <g clip-rule="evenodd" fill="#444" fill-rule="evenodd">
    <path d="m3.58869.00332828c.13117-.00084939.26625-.00172403.40545-.00332828h.00391 8.00395.0039c.1392.0016067.2743.00248346.4055.00333489 1.0544.00684311 1.8566.01205001 2.5261.38143111.3764.20766.6732.559386.8379.998044.1647.43867.2246.95958.2246 1.61719v10c0 .6576-.0601 1.1785-.2246 1.6172-.1647.4386-.4615.7904-.8379.998-.6695.3694-1.4718.3746-2.5262.3815-.1312.0008-.2662.0017-.4054.0033h-.0039-8.00395-.00391c-.13937-.0016-.2746-.0025-.40592-.0034-1.05418-.0068-1.85635-.0121-2.52572-.3814-.37637-.2076-.673221-.5594-.837891-.998-.1647096-.4387-.224609-.9596-.224609-1.6172v-10c0-.65761.0599394-1.17852.224609-1.61719.16466-.438658.461521-.790384.837891-.998044.66947-.3694147 1.47177-.37461 2.52619-.38143772zm8.41131.99667172h-8c-1.25853.01471-2.08912.05981-2.45508.26172-.18341.10119-.28716.21275-.38476.47266-.09756.25989-.16016.67323-.16016 1.26562h14c0-.59239-.0627-1.00572-.1602-1.26562-.0975-.25993-.2033-.37146-.3867-.47266-.3659-.20192-1.1946-.24702-2.4531-.26172zm3 4.57186h-14v7.42814c0 .5924.06259 1.0057.16016 1.2656.09756.2599.20135.3715.38476.4727.36596.2019 1.19655.247 2.45508.2617h.00586 7.99414c1.2585-.0147 2.0872-.0598 2.4531-.2617.1834-.1012.2891-.2128.3867-.4727s.1602-.6732.1602-1.2656z"/>
    <path d="m3.44206 7v2h.25751v-2zm.51502 0v2h.51502v-2zm.77253 2v-2h.25751v2zm.51502-2v2h.25752v-2zm.51503 2v-2h.51502v2zm1.28755-2v2h.51502v-2zm-.51502 2v-2h.25751v2zm1.28755-2v2h.77253v-2zm1.03005 2v-2h.25751v2zm.51502-2v2h.25751v-2zm.51502 2v-2h.25747v2zm.51497-2v2h.5151v-2zm.7726 2v-2h.2575v2zm1.545-2v2h.2576v-2zm-1.03 2v-2h.7725v2zm1.5451-2v2h.2575v-2zm.515 2v-2h.2575v2zm-11.7425-1 .92704-.75v1.5z" opacity=".7"/>
    <path d="m2.67334 11.6335-.14966-.6335h.42603l-.14209.6362.50415-.3855.18164.3274-.63965.1782.62231.2107-.18457.3274-.47924-.4143.13769.6199h-.42627l.1499-.6294-.49438.4131-.1792-.3301.63037-.1987-.62622-.2073.18164-.324zm2 0-.14966-.6335h.42603l-.14209.6362.50415-.3855.18164.3274-.63965.1782.62231.2107-.18457.3274-.47925-.4143.1377.6199h-.42627l.1499-.6294-.49438.4131-.1792-.3301.63037-.1987-.62622-.2073.18164-.324zm1.85034-.6335.14966.6335-.48755-.4099-.18164.324.62622.2073-.63037.1987.1792.3301.49438-.4131-.1499.6294h.42627l-.1377-.6199.47925.4143.18457-.3274-.62231-.2107.63965-.1782-.18164-.3274-.50415.3855.14208-.6362zm2.14966.6335-.14966-.6335h.42602l-.14209.6362.50415-.3855.18164.3274-.63964.1782.62231.2107-.18457.3274-.47925-.4143.1377.6199h-.42627l.1499-.6294-.49438.4131-.1792-.3301.63037-.1987-.62622-.2073.18164-.324zm1.85036-.6335.1496.6335-.4875-.4099-.1817.324.6263.2073-.6304.1987.1792.3301.4944-.4131-.1499.6294h.4262l-.1376-.6199.4792.4143.1846-.3274-.6223-.2107.6396-.1782-.1816-.3274-.5042.3855.1421-.6362zm2.1496.6335-.1496-.6335h.426l-.1421.6362.5042-.3855.1816.3274-.6396.1782.6223.2107-.1846.3274-.4792-.4143.1376.6199h-.4262l.1499-.6294-.4944.4131-.1792-.3301.6304-.1987-.6263-.2073.1817-.324z" opacity=".6"/>
  </g>
</svg>

<svg xmlns="http://www.w3.org/2000/svg" fill="none" width="16" height="16" viewBox="0 0 16 16">
 <path fill="#444" fill-rule="evenodd" d="M3.58869 0.00332828C3.71986 0.00247889 3.85494 0.00160425 3.99414 0H3.99805H12.002H12.0059C12.1451 0.0016067 12.2802 0.00248346 12.4114 0.00333489C13.4658 0.010178 14.268 0.0153849 14.9375 0.384766C15.3139 0.592426 15.6107 0.944152 15.7754 1.38281C15.9401 1.82148 16 2.34239 16 3V13C16 13.6576 15.9399 14.1785 15.7754 14.6172C15.6107 15.0558 15.3139 15.4076 14.9375 15.6152C14.268 15.9846 13.4657 15.9898 12.4113 15.9967C12.2801 15.9975 12.1451 15.9984 12.0059 16H12.002H3.99805H3.99414C3.85477 15.9984 3.71954 15.9975 3.58822 15.9966C2.53404 15.9898 1.73187 15.9845 1.0625 15.6152C0.68613 15.4076 0.389279 15.0558 0.224609 14.6172C0.0598994 14.1785 0 13.6576 0 13V3C0 2.34239 0.0599394 1.82148 0.224609 1.38281C0.389269 0.944152 0.68613 0.592426 1.0625 0.384766C1.73197 0.0153513 2.53427 0.010156 3.58869 0.00332828ZM12 1H4C2.74147 1.01471 1.91088 1.05981 1.54492 1.26172C1.36151 1.36291 1.25776 1.47447 1.16016 1.73438C1.0626 1.99427 1 2.40761 1 3H15C15 2.40761 14.9373 1.99428 14.8398 1.73438C14.7423 1.47445 14.6365 1.36292 14.4531 1.26172C14.0872 1.0598 13.2585 1.0147 12 1ZM15 5.57186H1V13C1 13.5924 1.06259 14.0057 1.16016 14.2656C1.25772 14.5255 1.36151 14.6371 1.54492 14.7383C1.91088 14.9402 2.74147 14.9853 4 15H4.00586H12C13.2585 14.9853 14.0872 14.9402 14.4531 14.7383C14.6365 14.6371 14.7422 14.5255 14.8398 14.2656C14.9374 14.0057 15 13.5924 15 13V5.57186Z" clip-rule="evenodd"/>
 <path fill="#444" fill-rule="evenodd" opacity=".7" d="M3.44206 7V9H3.69957V7H3.44206ZM3.95708 7V9H4.4721V7H3.95708ZM4.72961 9V7H4.98712V9H4.72961ZM5.24463 7V9H5.50215V7H5.24463ZM5.75966 9V7H6.27468V9H5.75966ZM7.04721 7V9H7.56223V7H7.04721ZM6.53219 9V7H6.7897V9H6.53219ZM7.81974 7V9H8.59227V7H7.81974ZM8.84979 9V7H9.1073V9H8.84979ZM9.36481 7V9H9.62232V7H9.36481ZM9.87983 9V7H10.1373V9H9.87983ZM10.3948 7V9H10.9099V7H10.3948ZM11.1674 9V7H11.4249V9H11.1674ZM12.7124 7V9H12.97V7H12.7124ZM11.6824 9V7H12.4549V9H11.6824ZM13.2275 7V9H13.485V7H13.2275ZM13.7425 9V7H14V9H13.7425ZM2 8L2.92704 7.25V8.75L2 8Z" clip-rule="evenodd"/>
 <path fill="#444" fill-rule="evenodd" opacity=".6" d="M2.67334 11.6335L2.52368 11H2.94971L2.80762 11.6362L3.31177 11.2507L3.49341 11.5781L2.85376 11.7563L3.47607 11.967L3.2915 12.2944L2.81226 11.8801L2.94995 12.5H2.52368L2.67358 11.8706L2.1792 12.2837L2 11.9536L2.63037 11.7549L2.00415 11.5476L2.18579 11.2236L2.67334 11.6335ZM4.67334 11.6335L4.52368 11H4.94971L4.80762 11.6362L5.31177 11.2507L5.49341 11.5781L4.85376 11.7563L5.47607 11.967L5.2915 12.2944L4.81225 11.8801L4.94995 12.5H4.52368L4.67358 11.8706L4.1792 12.2837L4 11.9536L4.63037 11.7549L4.00415 11.5476L4.18579 11.2236L4.67334 11.6335ZM6.52368 11L6.67334 11.6335L6.18579 11.2236L6.00415 11.5476L6.63037 11.7549L6 11.9536L6.1792 12.2837L6.67358 11.8706L6.52368 12.5H6.94995L6.81225 11.8801L7.2915 12.2944L7.47607 11.967L6.85376 11.7563L7.49341 11.5781L7.31177 11.2507L6.80762 11.6362L6.9497 11H6.52368ZM8.67334 11.6335L8.52368 11H8.9497L8.80761 11.6362L9.31176 11.2507L9.4934 11.5781L8.85376 11.7563L9.47607 11.967L9.2915 12.2944L8.81225 11.8801L8.94995 12.5H8.52368L8.67358 11.8706L8.1792 12.2837L8 11.9536L8.63037 11.7549L8.00415 11.5476L8.18579 11.2236L8.67334 11.6335ZM10.5237 11L10.6733 11.6335L10.1858 11.2236L10.0041 11.5476L10.6304 11.7549L10 11.9536L10.1792 12.2837L10.6736 11.8706L10.5237 12.5H10.9499L10.8123 11.8801L11.2915 12.2944L11.4761 11.967L10.8538 11.7563L11.4934 11.5781L11.3118 11.2507L10.8076 11.6362L10.9497 11H10.5237ZM12.6733 11.6335L12.5237 11H12.9497L12.8076 11.6362L13.3118 11.2507L13.4934 11.5781L12.8538 11.7563L13.4761 11.967L13.2915 12.2944L12.8123 11.8801L12.9499 12.5H12.5237L12.6736 11.8706L12.1792 12.2837L12 11.9536L12.6304 11.7549L12.0041 11.5476L12.1858 11.2236L12.6733 11.6335Z" clip-rule="evenodd"/>
</svg>
